X: 1
T: Trekant efter B\orge Christensen
O: Denmark
R: jig
B: "Foklemusikhus Spillebog"
Z: 2006 John Chambers <jc:trillian.mit.edu>
M: 6/8
L: 1/8
K: G
   d | "G"g3 d2B | G2B e2B | "D7"d3 dcA | F3 z2 | f3 e2d | c2d e2d | d2d def | "G"g3 z2 :|
|: B | "G"d3 B2d/B/ | G2B d2g | "D7"g2f A3 | A2G A2B | c3 A3 | A2F A3 | dcA dcA | "G"G3 z2 :|
|: G |"D7"AAA AGA | "G"B2G G2G | "D7"AAA AGA | "G"B2G G2B | "G"ddd dBG | "C"e2e "A(m)"a2a/g/ | "D7"fed def | "G"g2g g2 :|
